images/icon3.svg

<svg width="86" height="86" viewBox="0 0 86 86" fill="none" xmlns="http://www.w3.org/2000/svg">
<circle cx="43" cy="43" r="43" fill="#96A9C6"/>
<path d="M52.8741 49.8741L47.7792 47.3269C47.2987 47.0864 47 46.6032 47 46.0656V44.2624C47.1221 44.1131 47.2507 43.9429 47.3835 43.7552C48.0443 42.8219 48.5739 41.7829 48.9589 40.6624C49.7115 40.3173 50.2 39.5733 50.2 38.7333V36.6C50.2 36.0864 50.008 35.5888 49.6667 35.2V32.3632C49.6965 32.0699 49.8139 30.3237 48.5509 28.8832C47.4555 27.6336 45.6779 27 43.2667 27C40.8555 27 39.0779 27.6336 37.9824 28.8827C36.7195 30.3232 36.8368 32.0699 36.8667 32.3632V35.2C36.5253 35.5888 36.3333 36.0864 36.3333 36.6V38.7333C36.3333 39.3824 36.6283 39.9877 37.1317 40.3915C37.6203 42.3259 38.6427 43.7835 39 44.2512V46.016C39 46.5323 38.7184 47.0059 38.2656 47.2533L33.5077 49.8485C31.9605 50.6928 31 52.3109 31 54.0731V55.8C31 58.3312 39.024 59 43.2667 59C47.5093 59 55.5333 58.3312 55.5333 55.8V54.1771C55.5333 52.3435 54.5141 50.6944 52.8741 49.8741Z" fill="white"/>
</svg>

<svg xmlns="http://www.w3.org/2000/svg" width="86" height="86" fill="none"><circle cx="43" cy="43" r="43" fill="#96A9C6"/><path fill="#fff" d="m52.874 49.874-5.095-2.547c-.48-.24-.779-.724-.779-1.261v-1.804a9.2 9.2 0 0 0 .383-.507c.661-.933 1.19-1.972 1.576-3.093a2.116 2.116 0 0 0 1.241-1.929V36.6c0-.514-.192-1.011-.533-1.4v-2.837c.03-.293.147-2.04-1.116-3.48C47.455 27.633 45.678 27 43.267 27c-2.412 0-4.19.634-5.285 1.883-1.263 1.44-1.145 3.187-1.115 3.48V35.2a2.127 2.127 0 0 0-.534 1.4v2.133c0 .65.295 1.255.799 1.659.488 1.934 1.51 3.391 1.868 3.86v1.764c0 .516-.282.99-.734 1.237l-4.758 2.596A4.81 4.81 0 0 0 31 54.073V55.8c0 2.531 8.024 3.2 12.267 3.2 4.242 0 12.266-.669 12.266-3.2v-1.623a4.786 4.786 0 0 0-2.659-4.303Z"/></svg>
